dist/svg/masterpass.svg

<svg xmlns="http://www.w3.org/2000/svg" xmlns:xlink="http://www.w3.org/1999/xlink" width="38" height="31" viewBox="0 0 38 31">
  <defs>
    <polygon id="masterpass-a" points="16 50.588 53.727 50.588 53.727 20 16 20"/>
  </defs>
  <g fill="none" fill-rule="evenodd" transform="translate(-16 -20)">
    <rect width="70" height="70"/>
    <path fill="#000" d="M22.6900557,49.501956 L22.6900557,47.606616 C22.6900557,46.892996 22.2409082,46.412496 21.5151705,46.405676 C21.1339246,46.399476 20.7408426,46.519136 20.4661213,46.942596 C20.2593016,46.608416 19.9347443,46.405676 19.4787443,46.405676 C19.1597934,46.405676 18.8476951,46.501156 18.6034984,46.854556 L18.6034984,46.481936 L17.9537607,46.481936 L17.9537607,49.501956 L18.6097279,49.501956 L18.6097279,47.827336 C18.6097279,47.302816 18.8975311,47.025056 19.3410721,47.025056 C19.7721541,47.025056 19.9908098,47.309016 19.9908098,47.821136 L19.9908098,49.501956 L20.6474,49.501956 L20.6474,47.827336 C20.6474,47.302816 20.9470393,47.025056 21.3781213,47.025056 C21.8216623,47.025056 22.0340885,47.309016 22.0340885,47.821136 L22.0340885,49.501956 L22.6900557,49.501956 Z M32.4006131,46.481936 L31.337859,46.481936 L31.337859,45.565576 L30.6818918,45.565576 L30.6818918,46.481936 L30.0757607,46.481936 L30.0757607,47.082096 L30.6818918,47.082096 L30.6818918,48.459116 C30.6818918,49.160336 30.9510066,49.577596 31.7197279,49.577596 C32.0006787,49.577596 32.3252361,49.488936 32.5314328,49.343856 L32.3439246,48.781516 C32.1508098,48.894976 31.9377607,48.951396 31.768941,48.951396 C31.4443836,48.951396 31.337859,48.749896 31.337859,48.446716 L31.337859,47.082096 L32.4006131,47.082096 L32.4006131,46.481936 Z M37.9423836,46.405676 C37.5679902,46.405676 37.3237934,46.582996 37.1555967,46.848356 L37.1555967,46.481936 L36.5114656,46.481936 L36.5114656,49.501956 L37.1612033,49.501956 L37.1612033,47.808736 C37.1612033,47.309016 37.3742525,47.031876 37.7997279,47.031876 C37.9305475,47.031876 38.0682197,47.050476 38.2052689,47.107516 L38.405859,46.488136 C38.2613344,46.431096 38.0732033,46.405676 37.9423836,46.405676 Z M29.5636951,46.722496 C29.2509738,46.513556 28.8205148,46.405676 28.3452033,46.405676 C27.588941,46.405676 27.1017934,46.772096 27.1017934,47.372256 C27.1017934,47.865156 27.4643508,48.168956 28.1321541,48.263816 L28.4392689,48.307836 C28.7949738,48.358056 28.9637934,48.452916 28.9637934,48.623416 C28.9637934,48.857776 28.7258262,48.989836 28.2829082,48.989836 C27.8325148,48.989836 27.5079574,48.844756 27.2893016,48.674256 L26.9828098,49.185756 C27.3391377,49.451116 27.7889082,49.577596 28.2766787,49.577596 C29.1388426,49.577596 29.6384492,49.166536 29.6384492,48.591796 C29.6384492,48.061076 29.2453672,47.783936 28.5950066,47.688456 L28.2891377,47.644436 C28.0075639,47.606616 27.7826787,47.549576 27.7826787,47.346836 C27.7826787,47.126116 27.9951049,46.993436 28.3514328,46.993436 C28.7326787,46.993436 29.1014656,47.138516 29.2827443,47.252596 L29.5636951,46.722496 Z M34.4245803,46.405676 C35.2624492,46.405676 35.8368098,47.050476 35.8430393,47.991636 C35.8430393,48.080296 35.8368098,48.162756 35.8312033,48.244596 L33.6128754,48.244596 C33.706318,48.788336 34.0875639,48.983636 34.5061869,48.983636 C34.8064492,48.983636 35.124777,48.869556 35.3745803,48.667436 L35.6935311,49.154136 C35.3309738,49.463516 34.9185803,49.577596 34.4681869,49.577596 C33.5748754,49.577596 32.9375967,48.951396 32.9375967,47.991636 C32.9375967,47.050476 33.5499574,46.405676 34.4245803,46.405676 Z M34.4127443,46.993436 C33.9505148,46.993436 33.6876295,47.290416 33.618482,47.726896 L35.1683836,47.726896 C35.099859,47.259416 34.8313672,46.993436 34.4127443,46.993436 Z M26.3517607,47.991636 L26.3517607,49.501956 L25.702023,49.501956 L25.702023,49.134916 C25.4958262,49.407096 25.1831049,49.577596 24.7582525,49.577596 C23.9216295,49.577596 23.2650393,48.914196 23.2650393,47.991636 C23.2650393,47.069696 23.9216295,46.405676 24.7582525,46.405676 C25.1831049,46.405676 25.4958262,46.576176 25.702023,46.848356 L25.702023,46.481936 L26.3517607,46.481936 L26.3517607,47.991636 Z M23.9340885,47.991636 C23.9340885,48.522356 24.2773344,48.958216 24.839859,48.958216 C25.3768426,48.958216 25.740023,48.540956 25.740023,47.991636 C25.740023,47.442316 25.3768426,47.025056 24.839859,47.025056 C24.2773344,47.025056 23.9340885,47.460916 23.9340885,47.991636 Z M45.5972033,47.991636 L45.5972033,49.501956 L44.9474656,49.501956 L44.9474656,49.134916 C44.7412689,49.407096 44.4285475,49.577596 44.0036951,49.577596 C43.1664492,49.577596 42.510482,48.914196 42.510482,47.991636 C42.510482,47.069696 43.1664492,46.405676 44.0036951,46.405676 C44.4285475,46.405676 44.7412689,46.576176 44.9474656,46.848356 L44.9474656,46.481936 L45.5972033,46.481936 L45.5972033,47.991636 Z M43.1795311,47.991636 C43.1795311,48.522356 43.5221541,48.958216 44.0853016,48.958216 C44.6222852,48.958216 44.9848426,48.540956 44.9848426,47.991636 C44.9848426,47.442316 44.6222852,47.025056 44.0853016,47.025056 C43.5221541,47.025056 43.1795311,47.460916 43.1795311,47.991636 Z M38.9490721,47.985436 L38.9490721,46.475116 L39.5988098,46.475116 L39.5988098,46.841536 C39.8050066,46.569976 40.1177279,46.399476 40.5425803,46.399476 C41.3798262,46.399476 42.0357934,47.062876 42.0357934,47.985436 C42.0357934,48.907996 41.3798262,49.571396 40.5425803,49.571396 C40.1177279,49.571396 39.8050066,49.400896 39.5988098,49.128716 L39.5988098,50.588196 L38.9490721,50.588196 L38.9490721,47.985436 Z M41.3667443,47.985436 C41.3667443,47.454716 41.0234984,47.018856 40.4609738,47.018856 C39.9233672,47.018856 39.5614328,47.436116 39.5614328,47.985436 C39.5614328,48.534756 39.9233672,48.951396 40.4609738,48.951396 C41.0234984,48.951396 41.3667443,48.516156 41.3667443,47.985436 Z M48.8091377,46.728076 C48.4964164,46.519136 48.0653344,46.412496 47.5906459,46.412496 C46.8343836,46.412496 46.3472361,46.778296 46.3472361,47.378456 C46.3472361,47.871356 46.7091705,48.174536 47.3782197,48.270016 L47.6840885,48.314036 C48.0404164,48.364256 48.2092361,48.459116 48.2092361,48.629616 C48.2092361,48.863976 47.9718918,48.996656 47.5277279,48.996656 C47.0779574,48.996656 46.7534,48.850956 46.5341213,48.681076 L46.2282525,49.191956 C46.5839574,49.457316 47.0343508,49.584416 47.5214984,49.584416 C48.3842852,49.584416 48.8838918,49.173356 48.8838918,48.597996 C48.8838918,48.067896 48.4901869,47.789516 47.8398262,47.694656 L47.5345803,47.650636 C47.2536295,47.612816 47.0274984,47.555156 47.0274984,47.353656 C47.0274984,47.132316 47.2405475,47.000256 47.5962525,47.000256 C47.9781213,47.000256 48.3469082,47.144716 48.5281869,47.259416 L48.8091377,46.728076 Z M51.9270066,46.728076 C51.6149082,46.519136 51.1838262,46.412496 50.7085148,46.412496 C49.9528754,46.412496 49.464482,46.778296 49.464482,47.378456 C49.464482,47.871356 49.8276623,48.174536 50.4960885,48.270016 L50.8025803,48.314036 C51.1582852,48.364256 51.3271049,48.459116 51.3271049,48.629616 C51.3271049,48.863976 51.0897607,48.996656 50.6462197,48.996656 C50.1958262,48.996656 49.8712689,48.850956 49.6526131,48.681076 L49.3461213,49.191956 C49.7024492,49.457316 50.1528426,49.584416 50.6393672,49.584416 C51.5021541,49.584416 52.0023836,49.173356 52.0023836,48.597996 C52.0023836,48.067896 51.6080557,47.789516 50.958941,47.694656 L50.6524492,47.650636 C50.3714984,47.612816 50.1459902,47.555156 50.1459902,47.353656 C50.1459902,47.132316 50.3584164,47.000256 50.7147443,47.000256 C51.0959902,47.000256 51.464777,47.144716 51.6454328,47.259416 L51.9270066,46.728076 Z M52.5318918,49.505676 L52.5318918,49.126856 L52.3805148,49.126856 L52.3805148,49.049356 L52.7654984,49.049356 L52.7654984,49.126856 L52.6141213,49.126856 L52.6141213,49.505676 L52.5318918,49.505676 Z M53.3622852,49.505676 L53.3622852,49.048736 L53.2451705,49.048736 L53.1087443,49.363076 L52.972318,49.048736 L52.8552033,49.048736 L52.8552033,49.505676 L52.9380557,49.505676 L52.9380557,49.160956 L53.0657607,49.459176 L53.1517279,49.459176 L53.2794328,49.159716 L53.2794328,49.505676 L53.3622852,49.505676 Z"/>
    <mask id="masterpass-b" fill="#fff">
      <use xlink:href="#masterpass-a"/>
    </mask>
    <polygon fill="#FF5F00" points="29.762 41.056 39.964 41.056 39.964 22.52 29.762 22.52" mask="url(#masterpass-b)"/>
    <path fill="#EB001B" d="M30.4102852,31.78868 C30.4102852,28.02838 32.1514328,24.67914 34.8631377,22.5203 C32.8802852,20.94178 30.3778918,20 27.6580885,20 C21.2192689,20 16.0001869,25.27868 16.0001869,31.78868 C16.0001869,38.2993 21.2192689,43.57736 27.6580885,43.57736 C30.3778918,43.57736 32.8802852,42.6362 34.8631377,41.05706 C32.1514328,38.89822 30.4102852,35.5496 30.4102852,31.78868" mask="url(#masterpass-b)"/>
    <path fill="#F79E1B" d="M53.7268361,31.804118 C53.7268361,38.314738 48.5071311,43.592798 42.0689344,43.592798 C39.3491311,43.592798 36.8461148,42.651018 34.8632623,41.072498 C37.5749672,38.914278 39.3161148,35.564418 39.3161148,31.804118 C39.3161148,28.043818 37.5749672,24.694578 34.8632623,22.535738 C36.8461148,20.957218 39.3491311,20.015438 42.0689344,20.015438 C48.5071311,20.015438 53.7268361,25.293498 53.7268361,31.804118 L53.7268361,31.804118 Z M52.6142459,39.108958 L52.6142459,38.729518 L52.765623,38.729518 L52.765623,38.652638 L52.3806393,38.652638 L52.3806393,38.729518 L52.5320164,38.729518 L52.5320164,39.108958 L52.6142459,39.108958 Z M53.3624098,39.108958 L53.3624098,38.651398 L53.2452951,38.651398 L53.1088689,38.966358 L52.9724426,38.651398 L52.8553279,38.651398 L52.8553279,39.108958 L52.9375574,39.108958 L52.9375574,38.764238 L53.0652623,39.061218 L53.1518525,39.061218 L53.2795574,38.763618 L53.2795574,39.108958 L53.3624098,39.108958 Z" mask="url(#masterpass-b)"/>
  </g>
</svg>

<svg xmlns="http://www.w3.org/2000/svg" xmlns:xlink="http://www.w3.org/1999/xlink" width="38" height="31"><defs><path id="a" d="M16 50.588h37.727V20H16z"/></defs><g fill="none" fill-rule="evenodd" transform="translate(-16 -20)"><path d="M0 0h70v70H0z"/><path fill="#000" d="M22.69 49.502v-1.895c0-.714-.45-1.195-1.175-1.201-.381-.007-.774.113-1.049.537-.207-.335-.531-.537-.987-.537-.32 0-.631.095-.876.449v-.373h-.65v3.02h.657v-1.675c0-.524.288-.802.731-.802.431 0 .65.284.65.796v1.681h.656v-1.675c0-.524.3-.802.731-.802.444 0 .656.284.656.796v1.681h.656zm9.71-3.02h-1.062v-.916h-.656v.916h-.606v.6h.606v1.377c0 .701.269 1.119 1.038 1.119.28 0 .605-.09.811-.234l-.187-.562a1.19 1.19 0 0 1-.575.17c-.325 0-.431-.202-.431-.505v-1.365H32.4v-.6zm5.542-.076c-.374 0-.618.177-.786.442v-.366h-.645v3.02h.65v-1.693c0-.5.213-.777.639-.777.13 0 .268.018.405.076l.2-.62a1.382 1.382 0 0 0-.463-.082zm-8.378.316c-.313-.208-.743-.316-1.219-.316-.756 0-1.243.366-1.243.966 0 .493.362.797 1.03.892l.307.044c.356.05.525.145.525.315 0 .235-.238.367-.681.367-.45 0-.775-.145-.994-.316l-.306.512c.356.265.806.392 1.294.392.862 0 1.361-.411 1.361-.986 0-.53-.393-.808-1.043-.904l-.306-.044c-.281-.037-.506-.094-.506-.297 0-.22.212-.354.568-.354.382 0 .75.146.932.26l.28-.53zm4.86-.316c.838 0 1.413.644 1.419 1.586 0 .088-.006.17-.012.253h-2.218c.093.543.475.739.893.739.3 0 .619-.114.869-.317l.319.487c-.363.31-.775.424-1.226.424-.893 0-1.53-.627-1.53-1.586 0-.942.612-1.586 1.487-1.586zm-.011.587c-.462 0-.725.297-.795.734h1.55c-.068-.468-.337-.734-.755-.734zm-8.061.999v1.51h-.65v-.367c-.206.272-.519.443-.944.443-.836 0-1.493-.664-1.493-1.586s.657-1.586 1.493-1.586c.425 0 .738.17.944.442v-.366h.65v1.51zm-2.418 0c0 .53.343.966.906.966.537 0 .9-.417.9-.966 0-.55-.363-.967-.9-.967-.563 0-.906.436-.906.967zm21.663 0v1.51h-.65v-.367c-.206.272-.518.443-.943.443-.838 0-1.494-.664-1.494-1.586s.656-1.586 1.494-1.586c.425 0 .737.17.943.442v-.366h.65v1.51zm-2.417 0c0 .53.342.966.905.966.537 0 .9-.417.9-.966 0-.55-.363-.967-.9-.967-.563 0-.905.436-.905.967zm-4.23-.007v-1.51h.649v.367c.206-.272.519-.443.944-.443.837 0 1.493.664 1.493 1.586 0 .923-.656 1.586-1.493 1.586-.425 0-.738-.17-.944-.442v1.46h-.65v-2.604zm2.417 0c0-.53-.344-.966-.906-.966-.538 0-.9.417-.9.966 0 .55.362.966.9.966.562 0 .906-.435.906-.966zm7.442-1.257c-.313-.209-.744-.316-1.218-.316-.757 0-1.244.366-1.244.966 0 .493.362.797 1.031.892l.306.044c.356.05.525.145.525.316 0 .234-.237.367-.681.367-.45 0-.775-.146-.994-.316l-.306.511c.356.265.806.392 1.293.392.863 0 1.363-.41 1.363-.986 0-.53-.394-.808-1.044-.903l-.305-.044c-.281-.038-.508-.096-.508-.297 0-.222.214-.354.57-.354.381 0 .75.145.931.26l.281-.532zm3.118 0c-.312-.209-.743-.316-1.218-.316-.756 0-1.245.366-1.245.966 0 .493.364.797 1.032.892l.307.044c.355.05.524.145.524.316 0 .234-.237.367-.68.367-.451 0-.776-.146-.994-.316l-.307.511c.356.265.807.392 1.293.392.863 0 1.363-.41 1.363-.986 0-.53-.394-.808-1.043-.903l-.307-.044c-.28-.038-.506-.096-.506-.297 0-.222.212-.354.569-.354.381 0 .75.145.93.26l.282-.532zm.605 2.778v-.38h-.151v-.077h.384v.078h-.15v.379h-.083zm.83 0v-.457h-.117l-.136.314-.137-.314h-.117v.457h.083v-.345l.128.298h.086l.127-.3v.347h.083z"/><mask id="b" fill="#fff"><use xlink:href="#a"/></mask><path fill="#FF5F00" mask="url(#b)" d="M29.762 41.056h10.202V22.52H29.762z"/><path fill="#EB001B" d="M30.41 31.789c0-3.76 1.741-7.11 4.453-9.269A11.527 11.527 0 0 0 27.658 20C21.22 20 16 25.279 16 31.789s5.22 11.788 11.658 11.788c2.72 0 5.222-.94 7.205-2.52a11.816 11.816 0 0 1-4.453-9.268" mask="url(#b)"/><path fill="#F79E1B" d="M53.727 31.804c0 6.51-5.22 11.789-11.658 11.789-2.72 0-5.223-.942-7.206-2.52a11.816 11.816 0 0 0 4.453-9.269c0-3.76-1.741-7.11-4.453-9.268a11.528 11.528 0 0 1 7.206-2.52c6.438 0 11.658 5.277 11.658 11.788zm-1.113 7.305v-.38h.152v-.076h-.385v.077h.151v.379h.082zm.748 0v-.458h-.117l-.136.315-.137-.315h-.117v.458h.083v-.345l.127.297h.087l.128-.297v.345h.082z" mask="url(#b)"/></g></svg>
